resources/svg/major-transfer.svg

<svg xmlns="http://www.w3.org/2000/svg" viewBox="0 0 20 20" fill="currentColor"><path d="M9 14h8v-11h-11v8h-2v-8.5a1.5 1.5 0 0 1 1.5-1.5h12a1.5 1.5 0 0 1 1.5 1.5v12a1.5 1.5 0 0 1-1.5 1.5h-8.5v-2z"/><path d="M9 5a1 1 0 0 0 0 2h2.586l-3.293 3.293a1 1 0 1 0 1.414 1.414l3.293-3.293v2.586a1 1 0 1 0 2 0v-5c0-.025 0-.05-.003-.075a1 1 0 0 0-.997-.925h-5zm-9 9.5a1.5 1.5 0 0 1 1.5-1.5h4a1.5 1.5 0 0 1 1.5 1.5v4a1.5 1.5 0 0 1-1.5 1.5h-4a1.5 1.5 0 0 1-1.5-1.5v-4z"/></svg>

<svg xmlns="http://www.w3.org/2000/svg" viewBox="0 0 20 20" fill="currentColor"><path d="M9 14h8V3H6v8H4V2.5A1.5 1.5 0 0 1 5.5 1h12A1.5 1.5 0 0 1 19 2.5v12a1.5 1.5 0 0 1-1.5 1.5H9v-2z"/><path d="M9 5a1 1 0 0 0 0 2h2.586l-3.293 3.293a1 1 0 1 0 1.414 1.414L13 8.414V11a1 1 0 1 0 2 0V6c0-.025 0-.05-.003-.075A1 1 0 0 0 14 5H9zm-9 9.5A1.5 1.5 0 0 1 1.5 13h4A1.5 1.5 0 0 1 7 14.5v4A1.5 1.5 0 0 1 5.5 20h-4A1.5 1.5 0 0 1 0 18.5v-4z"/></svg>
